src/images/app-icons/light-theme/036.svg

<svg xmlns="http://www.w3.org/2000/svg" xmlns:xlink="http://www.w3.org/1999/xlink" viewBox="0 0 32 32"><defs><linearGradient id="036_svg__a" x1="15.976" y1="32" x2="15.976" y2="26" gradientUnits="userSpaceOnUse"><stop offset=".2"/><stop offset="1" stop-opacity="0"/></linearGradient><linearGradient id="036_svg__b" x1="-834.024" y1="5734" x2="-834.024" y2="5728" gradientTransform="translate(850 -5728)" xlink:href="#036_svg__a"/><linearGradient id="036_svg__c" x1="2454.976" y1="3321" x2="2454.976" y2="3315" gradientTransform="translate(-2426 -3302)" xlink:href="#036_svg__a"/><linearGradient id="036_svg__d" x1="-3273.024" y1="2445" x2="-3273.024" y2="2439" gradientTransform="translate(3276 -2426)" xlink:href="#036_svg__a"/><linearGradient id="036_svg__f" y1="32" x2="32" gradientUnits="userSpaceOnUse"><stop offset=".1" stop-color="#08bdba"/><stop offset=".9" stop-color="#0f62fe"/></linearGradient><mask id="036_svg__e" x="-.024" y="0" width="32.024" height="32" maskUnits="userSpaceOnUse"><path d="M31 13v-2h-5V8a2 2 0 00-2-2h-3V1h-2v5h-6V1h-2v5H8a2 2 0 00-2 2v3H1v2h5v6H1v2h5v3a2 2 0 002 2h3v5h2v-5h6v5h2v-5h3a2 2 0 002-2v-3h5v-2h-5v-6zm-7 11H8V8h16z" fill="#fff"/><path fill="url(#036_svg__a)" d="M9.952 26H22v6H9.952z"/><path transform="rotate(180 15.976 3)" fill="url(#036_svg__b)" d="M9.952 0H22v6H9.952z"/><path transform="rotate(-90 28.976 16)" fill="url(#036_svg__c)" d="M22.952 13H35v6H22.952z"/><path transform="rotate(90 2.976 16)" fill="url(#036_svg__d)" d="M-3.048 13H9v6H-3.048z"/></mask></defs><g data-name="Layer 2"><g data-name="Light theme icons"><path d="M11 11v10h10V11zm8 8h-6v-6h6z" fill="#001d6c"/><g mask="url(#036_svg__e)"><path fill="url(#036_svg__f)" d="M0 0h32v32H0z"/></g></g></g></svg>

<svg xmlns="http://www.w3.org/2000/svg" xmlns:xlink="http://www.w3.org/1999/xlink" viewBox="0 0 32 32"><defs><style>.cls-1{fill:#fff;}.cls-2{fill:url(#linear-gradient);}.cls-3{fill:url(#linear-gradient-2);}.cls-4{fill:url(#linear-gradient-3);}.cls-5{fill:url(#linear-gradient-4);}.cls-6{fill:#001d6c;}.cls-7{mask:url(#mask);}.cls-8{fill:url(#linear-gradient-5);}</style><linearGradient id="linear-gradient" x1="15.976" y1="32" x2="15.976" y2="26" gradientUnits="userSpaceOnUse"><stop offset="0.2"/><stop offset="1" stop-opacity="0"/></linearGradient><linearGradient id="linear-gradient-2" x1="-834.024" y1="5734" x2="-834.024" y2="5728" gradientTransform="translate(850 -5728)" xlink:href="#linear-gradient"/><linearGradient id="linear-gradient-3" x1="2454.976" y1="3321" x2="2454.976" y2="3315" gradientTransform="translate(-2426 -3302)" xlink:href="#linear-gradient"/><linearGradient id="linear-gradient-4" x1="-3273.024" y1="2445" x2="-3273.024" y2="2439" gradientTransform="translate(3276 -2426)" xlink:href="#linear-gradient"/><mask id="mask" x="-0.024" y="0" width="32.024" height="32" maskUnits="userSpaceOnUse"><path class="cls-1" d="M31,13V11H26V8a2,2,0,0,0-2-2H21V1H19V6H13V1H11V6H8A2,2,0,0,0,6,8v3H1v2H6v6H1v2H6v3a2,2,0,0,0,2,2h3v5h2V26h6v5h2V26h3a2,2,0,0,0,2-2V21h5V19H26V13ZM24,24H8V8H24Z"/><rect class="cls-2" x="9.952" y="26" width="12.048" height="6"/><rect class="cls-3" x="9.952" width="12.048" height="6" transform="translate(31.952 6) rotate(180)"/><rect class="cls-4" x="22.952" y="13" width="12.048" height="6" transform="translate(12.976 44.976) rotate(-90)"/><rect class="cls-5" x="-3.048" y="13" width="12.048" height="6" transform="translate(18.976 13.024) rotate(90)"/></mask><linearGradient id="linear-gradient-5" y1="32" x2="32" gradientUnits="userSpaceOnUse"><stop offset="0.1" stop-color="#08bdba"/><stop offset="0.9" stop-color="#0f62fe"/></linearGradient></defs><g id="Layer_2" data-name="Layer 2"><g id="Light_theme_icons" data-name="Light theme icons"><path class="cls-6" d="M11,11V21H21V11Zm8,8H13V13h6Z"/><g class="cls-7"><rect class="cls-8" width="32" height="32"/></g></g></g></svg>
